material/.icons/material/microsoft-xbox-controller-battery-alert.svg

<svg xmlns="http://www.w3.org/2000/svg" viewBox="0 0 24 24"><path d="M21 19V7h-6v12h6m.67-14C22.4 5 23 5.6 23 6.33v13.34A1.33 1.33 0 0121.67 21h-7.34c-.73 0-1.33-.6-1.33-1.33v-2.92H7.75C5.75 16.75 5 19 3 20c-2 0-3.5-3 .5-11.5h.25l.44-.83S7 6 8.33 7.23H13v-.9A1.33 1.33 0 0114.33 5H16V3h4v2h1.67M11 8a1 1 0 00-1 1 1 1 0 001 1 1 1 0 001-1 1 1 0 00-1-1m6 1h2v5h-2V9m0 6h2v2h-2v-2z"/></svg>

<?xml version="1.0" encoding="UTF-8"?><!DOCTYPE svg PUBLIC "-//W3C//DTD SVG 1.1//EN" "http://www.w3.org/Graphics/SVG/1.1/DTD/svg11.dtd"><svg xmlns="http://www.w3.org/2000/svg" xmlns:xlink="http://www.w3.org/1999/xlink" version="1.1" id="mdi-microsoft-xbox-controller-battery-alert" width="24" height="24" viewBox="0 0 24 24"><path d="M21,19V7H15V19H21M21.67,5C22.4,5 23,5.6 23,6.33V19.67A1.33,1.33 0 0,1 21.67,21H14.33C13.6,21 13,20.4 13,19.67V16.75H7.75C5.75,16.75 5,19 3,20C1,20 -0.5,17 3.5,8.5H3.75L4.19,7.67C4.19,7.67 7,6 8.33,7.23H13V6.33A1.33,1.33 0 0,1 14.33,5H16V3H20V5H21.67M11,8A1,1 0 0,0 10,9A1,1 0 0,0 11,10A1,1 0 0,0 12,9A1,1 0 0,0 11,8M17,9H19V14H17V9M17,15H19V17H17V15Z" /></svg>
